X:1
T:36
T:36
T:Études enfantines op. 37
T:Henry Lemoine
C:Henry Lemoine
%%score { 1 | ( 2 3 ) }
L:1/8
Q:1/4=126
M:2/4
K:G
V:1 treble nm="Piano" snm="Pno."
V:2 bass 
V:3 bass 
V:1
"^Allegretto quasi Allegro"!p! (!2!B/c/ ||S !4!d/!2!B/G/!5!e/ d/B/G/e/ | %2
 d/B/G/e/ .!4!d)!f!(!2!f/g/ | !4!a/!2!f/d/!5!b/ a/f/d/b/ | a/f/d/b/ .!4!a)!p!(!2!b/c'/ | %5
 !4!d'/!2!b/g/!5!e'/ d'/b/g/e'/ | d'/b/g/e'/ d'/!1!b/)(!5!g'/f'/ | %7
"_cresc." e'/d'/!1!c'/!3!b/ a/g/!2!f/!4!a/ | !3!g/!1!d/!5!b/a/ g/f/e/!4!d/ | %9
 !3!c/B/A/!3!G/ !2!F/G/A/F/) |!f! (G/D/!5!B/!3!G/ F/D/!4!A/!2!F/ | G/D/B/G/ F/D/A/F/ | %12
 G/D/B/G/ F/D/A/F/ | G/D/B/G/ F/D/A/F/ | .G) z .[Bdg] z | [B,DG]4- | [B,DG]2 z!fine! |] (!3!f/g/ | %18
 !5!a/!3!f/e/d/ a/f/e/d/ | !4!d/^c/B/A/ d/c/B/A/) | (!5!a/!3!f/e/d/ a/f/e/d/ | %21
 !4!d/^c/B/A/ d/c/B/A/) |"_poco a poco" (!5!a/!3!f/e/d/ a/"_cresc."f/e/d/ | %23
 !5!b/!3!g/f/e/ b/g/f/e/ | !5!=c'/!3!a/!1!g/!2!f/ c'/a/g/f/ | !5!d'/!3!b/a/g/ d'/b/a/g/) | %26
!f! (!5!e'/!3!c'/b/a/ !5!d'/!3!b/a/g/ |"_poco a poco" !5!c'/!3!a/!1!g/!2!f/ !5!b/!3!g/"_dim."f/e/ | %28
 !5!a/!3!f/e/d/ !5!g/!3!e/!1!d/!2!^c/ | !4!e/d/^c/!1!d/ !5!g/!3!e/!1!d/!2!c/ | %30
 !4!e/d/^c/!1!d/ !5!g/!3!e/!1!d/!2!c/ | !4!e/d/^c/!1!d/ !5!g/!3!e/!1!d/!2!c/ | %32
!p! (!3!d/)!4!e/!2!^c/!4!e/ d/e/c/e/ |"_poco ritardando" d/e/^c/e/ !3!d/!1!=c/!2!B/c/)!D.S.! |] %34
V:2
 z || .!1!!3!!5![G,B,D].[G,CE] .[G,B,D].[G,CE] | .[G,B,D].[G,CE] .[G,B,D] z | %3
 .[D,F,A,].[D,G,B,] .[D,F,A,].[D,G,B,] | .[D,F,A,].[D,G,B,] .[D,F,A,] z | %5
 .[G,B,D].[G,CE] .[G,B,D].[G,CE] | .[G,B,D] z z .!5!!4!!1![B,,D,G,] | %7
 .!5!!3!!1![C,E,A,] z .[D,A,C] z | .[G,B,] z z .!5!!4!!1![B,,D,G,] | %9
 .!5!!3!!1![C,E,A,] z .[D,A,C] z | .G,,.!5!!3!!1![D,G,B,] !^!!5!!2!!1![D,A,C]2 | %11
 .G,,.!5!!3!!1![D,G,B,] !^!!5!!2!!1![D,A,C]2 | .G,,.!5!!3!!1![D,G,B,] !^!!5!!2!!1![D,A,C]2 | %13
 .G,,.!5!!3!!1![D,G,B,] !^!!5!!2!!1![D,A,C]2 | .[G,B,] z .!4!!1![G,D] z | !5!!2![G,,D,]4- | %16
 [G,,D,]2 z |] z | .!4!D,.[F,A,] .A,,.[F,A,] | .!3!E,.[G,A,] .A,,.[G,A,] | %20
 .!4!D,.[F,A,] .A,,.[F,A,] | .!3!E,.[G,A,] .A,,.[G,A,] | z !^![F,A,]2 [F,A,] | %23
 z !^![G,B,]2 [G,B,] | z !^![A,=C]2 [A,C] | z !^![B,D]2 [B,D] | .!4!D,.[CE] .D,.[B,D] | %27
 .D,.!2!!1![A,C] .D,.!2!!1![G,B,] | .D,.[F,A,] .D,.[G,A,] | .D,.[F,A,] .D,.[G,A,] | %30
 .D,.[F,A,] .D,.[G,A,] | .D,.[F,A,] .D,.[G,A,] | .[D,F,] z z2 | z4 |] %34
V:3
 x || x4 | x4 | x4 | x4 | x4 | x4 | x4 | x4 | x4 | x4 | x4 | x4 | x4 | x4 | x4 | x3 |] x | x4 | %19
 x4 | x4 | x4 | !5!D,4 | !5!D,4 | !5!D,4 | !5!D,4 | x4 | x4 | x4 | x4 | x4 | x4 | x4 | x4 |] %34

